assets/icons/care/tumble_dry_at_normal_temperature.svg

<svg xmlns="http://www.w3.org/2000/svg" viewBox="0 0 453.5 453.5" style="enable-background:new 0 0 453.5 453.5" xml:space="preserve"><path d="M368.5 369V85.5H85V369h283.5zM343 343.5H110.5V111.1H343v232.4zM110.5 227.3c0 64.1 52.1 116.2 116.2 116.2S343 291.4 343 227.3s-52.1-116.2-116.2-116.2-116.3 52.1-116.3 116.2zm25.5 0c0-50 40.7-90.7 90.7-90.7s90.7 40.7 90.7 90.7-40.7 90.7-90.7 90.7-90.7-40.7-90.7-90.7zm44 0c0 9.4 7.6 17 17 17s17-7.6 17-17-7.6-17-17-17-17 7.6-17 17zm59.5 0c0 9.4 7.6 17 17 17s17-7.6 17-17-7.6-17-17-17-17 7.6-17 17z"/></svg>

<?xml version="1.0" encoding="utf-8"?>
<!-- Generator: Adobe Illustrator 23.0.4, SVG Export Plug-In . SVG Version: 6.00 Build 0)  -->
<svg version="1.1" id="Ebene_1" xmlns="http://www.w3.org/2000/svg" xmlns:xlink="http://www.w3.org/1999/xlink" x="0px" y="0px"
	 viewBox="0 0 453.5 453.5" style="enable-background:new 0 0 453.5 453.5;" xml:space="preserve">
<g>
	<path d="M368.5,369V85.5H85V369H368.5L368.5,369z M343,343.5H110.5V111.1H343V343.5L343,343.5z M110.5,227.3
		c0,64.1,52.1,116.2,116.2,116.2S343,291.4,343,227.3s-52.1-116.2-116.2-116.2S110.5,163.2,110.5,227.3L110.5,227.3z M136,227.3
		c0-50,40.7-90.7,90.7-90.7s90.7,40.7,90.7,90.7c0,50-40.7,90.7-90.7,90.7S136,277.3,136,227.3L136,227.3z M180,227.3
		c0,9.4,7.6,17,17,17c9.4,0,17-7.6,17-17c0-9.4-7.6-17-17-17C187.6,210.3,180,217.9,180,227.3L180,227.3z M239.5,227.3
		c0,9.4,7.6,17,17,17c9.4,0,17-7.6,17-17c0-9.4-7.6-17-17-17C247.1,210.3,239.5,217.9,239.5,227.3L239.5,227.3z"/>
</g>
</svg>
